X:1
T:Albano, CM
T:Albano, CM
T:Vincent Novello (1781-1861)
T:Public Domain Courtesy of the Cyber Hymnal™
C:Vincent Novello (1781-1861)
Z:Public Domain
Z:Courtesy of the Cyber Hymnal™
%%score ( 1 2 ) ( 3 4 )
L:1/8
Q:1/4=110
M:4/4
K:F
V:1 treble 
V:2 treble 
V:3 bass 
V:4 bass 
V:1
 [FA]2 | [Fc]2 [GB]2 [FA]2 [EG]2 | [DF]2 [DG]2 [CE]2 [CE]2 | [CF]2 F2 [FG]2 [EG]2 | [FA]6 [_EA]2 | %5
 [Dd]2 [Fc]2 [GB]2 [FA]2 | [DG]2 [^B,F]2 [CE]2 [CG]2 | [Cc]2 [DF]2 [DF]2 [CE]2 | [CF]6 |] %9
V:2
 x2 | x8 | x8 | x2 F2 x4 | x8 | x8 | x8 | x8 | x6 |] %9
V:3
 [F,C]2 | [A,C]2 [E,C]2 [F,C]2 [C,B,]2 | [D,A,]2 [B,,B,]2 [C,G,]2 [B,,G,]2 | %3
 [A,,F,]2 [D,A,]2 [B,,D]2 [C,C]2 | [F,,C]6 [F,C]2 | B,2 [A,C]2 [E,C]2 [F,C]2 | %6
 [B,,B,]2 [D,G,]2 [C,G,]2 [B,,E,]2 | [A,,F,]2 [D,A,]2 [B,,G,]2 [C,B,]2 | [F,,A,]6 |] %9
V:4
 x2 | x8 | x8 | x8 | x8 | B,2 x6 | x8 | x8 | x6 |] %9

